svg/fluentui-system-icons/ic_fluent_select_object_skew_24_filled.svg

<svg width="24" height="24" viewBox="0 0 24 24" fill="none" xmlns="http://www.w3.org/2000/svg">
<path d="M18.5858 6.41421C18.9477 6.77614 19.4477 7 20 7C20.1675 7 20.3301 6.97942 20.4856 6.94064C21.3555 6.72367 22 5.9371 22 5C22 3.89543 21.1046 3 20 3C19.2406 3 18.5801 3.42323 18.2414 4.04668C18.0874 4.33007 18 4.65482 18 5C18 5.36428 18.0974 5.70583 18.2676 6C18.3498 6.14225 18.4491 6.27341 18.5627 6.39073C18.5703 6.39862 18.578 6.40645 18.5858 6.41421ZM14.2676 20C14.6134 20.5978 15.2597 21 16 21C17.1046 21 18 20.1046 18 19C18 18.4596 17.7857 17.9693 17.4374 17.6093C17.4297 17.6014 17.422 17.5936 17.4142 17.5858C17.0523 17.2239 16.5523 17 16 17C15.8326 17 15.6699 17.0206 15.5145 17.0593C14.965 17.1964 14.5054 17.5607 14.2414 18.0467C14.0874 18.3301 14 18.6548 14 19C14 19.3643 14.0974 19.7058 14.2676 20ZM4 21C2.89543 21 2 20.1046 2 19C2 18.0629 2.64454 17.2763 3.51451 17.0593C3.52574 17.0565 3.53702 17.0538 3.54833 17.0512C3.69348 17.0177 3.84467 17 4 17C4.56417 17 5.07378 17.2336 5.43739 17.6093C5.56321 17.7394 5.67155 17.8864 5.75861 18.0467C5.91256 18.3301 6 18.6548 6 19C6 19.3643 5.9026 19.7058 5.73244 20C5.38663 20.5978 4.74029 21 4 21ZM6.58579 6.41421C6.94772 6.77614 7.44772 7 8 7C8.16747 7 8.33013 6.97942 8.48559 6.94064C9.01734 6.80802 9.46486 6.46256 9.73244 6C9.74136 5.98457 9.75009 5.96901 9.75861 5.95332C9.91256 5.66993 10 5.34518 10 5C10 4.63571 9.90261 4.29417 9.73244 4C9.38663 3.4022 8.74028 3 8 3C6.89543 3 6 3.89543 6 5C6 5.54043 6.21435 6.0308 6.56268 6.39073C6.57032 6.39862 6.57802 6.40645 6.58579 6.41421ZM3.81558 16.0056L6.26142 7.44515C6.75188 7.79452 7.35195 8 8 8C8.06196 8 8.12348 7.99812 8.18451 7.99442L5.73866 16.5549C5.24818 16.2055 4.64809 16 4 16C3.93807 16 3.87658 16.0019 3.81558 16.0056ZM17.1707 6H10.8293C10.9398 5.68722 11 5.35064 11 5C11 4.64936 10.9398 4.31278 10.8293 4H17.1707C17.0602 4.31278 17 4.64936 17 5C17 5.35064 17.0602 5.68722 17.1707 6ZM13.1707 20C13.0602 19.6872 13 19.3506 13 19C13 18.6494 13.0602 18.3128 13.1707 18H6.82929C6.93985 18.3128 7 18.6494 7 19C7 19.3506 6.93985 19.6872 6.82929 20H13.1707ZM15.8156 16.0056L18.2614 7.44515C18.7519 7.79452 19.3519 8 20 8C20.062 8 20.1235 7.99812 20.1845 7.99442L17.7387 16.5549C17.2482 16.2055 16.6481 16 16 16C15.9381 16 15.8766 16.0019 15.8156 16.0056Z" fill="#212121"/>
</svg>

<svg xmlns="http://www.w3.org/2000/svg" width="24" height="24"><path d="M18.586 6.414a1.994 1.994 0 0 0 1.9.527 2 2 0 1 0-1.9-.527ZM14.268 20A2 2 0 0 0 18 19a1.994 1.994 0 0 0-.586-1.414 1.994 1.994 0 0 0-1.9-.527A2.004 2.004 0 0 0 14 19c0 .364.097.706.268 1ZM4 21a2 2 0 1 1 0-4 2 2 0 0 1 0 4ZM6.586 6.414a1.994 1.994 0 0 0 1.9.527A2.004 2.004 0 0 0 10 5a2 2 0 1 0-3.414 1.414Zm-2.77 9.592 2.445-8.56a2.986 2.986 0 0 0 1.924.548l-2.446 8.56a2.986 2.986 0 0 0-1.923-.548ZM17.17 6h-6.342a2.996 2.996 0 0 0 0-2h6.342a2.996 2.996 0 0 0 0 2Zm-4 14a2.997 2.997 0 0 1 0-2H6.829a2.995 2.995 0 0 1 0 2h6.342Zm2.645-3.994 2.445-8.56a2.986 2.986 0 0 0 1.924.548l-2.446 8.56a2.986 2.986 0 0 0-1.923-.548Z"/></svg>
